X: 10093
T: Didn't She Dance And Dance
R: slide
M: 12/8
K: Gmajor
g2f|:e2d BAB G3 G2A|B2d d2B d3 g2f|
e2d BAB G3 G2d|efg fed e2f g2f|
e2d BAB G3 G2A|B2d d2B d3 g2f|
e2d BAB G3 G2d|efg fed e3 e2d||
B2d e2f g2f g2d|BAB d2B d3 B2A|
B2d e2f g2f g2a|bag agf e3 e2d|
B2d e2f g2f g2d|BAB d2B d3 g2a|
bag agf g2e fed|efg fed e2f g2f:|

